(.../Eagle/EAGLE-5.6.0/ulp/pcb-gcode.ulp)
(Copyright 2005 - 2012 by John Johnson)
(See readme.txt for licensing terms.)
(This file generated from the board:)
(.../projects/mRMeter/simple_version.brd)
(Current profile is .../EAGLE-5.6.0/ulp/profiles/mach.pp  )
(This file generated 15.04.2014 13:15:39)

G21
G90
M05
G00 Z0.5000  
G00 X0.0000  Y0.0000  
M06 T01  ; 0.5000  
G00 Z0.5000  
M03
G04 P1.000000
G82 X0 Y0 Z-3.0000 F254   R0.5000  P0.100000
G82 X3 Y0
G82 X6 Y0
G82 X5 Y5
G82 X10 Y10
G82 X0 Y10
G82 X-1 Y-1

G00 Z5.0000  
M05
M02
